Obsidian-SemiLight/actions/16s/snap-nodes-smooth.svg

<svg viewBox="0 0 16 16" xmlns="http://www.w3.org/2000/svg"><path d="m8 2.0253906a5.500002 5.500015 0 0 0 -4.9726562 4.9746094h.9726562.03125a4.5 4.5 0 0 1 3.96875-3.9667969v-.0332031zm1 .0019532v.9726562.03125a4.5 4.5 0 0 1 3.966797 3.96875h.033203.974609a5.500002 5.500015 0 0 0 -4.974609-4.9726562zm-5.9707031 5.9726562a5.500002 5.500015 0 0 0 4.9707031 4.972656v-.972656-.03125a4.5 4.5 0 0 1 -3.9667969-3.96875h-.0332031zm9.9394531 0a4.5 4.5 0 0 1 -3.96875 3.966797v.033203.974609a5.500002 5.500015 0 0 0 4.972656-4.974609h-.972656z" fill="#4d4d4d"/><path d="m7 1v3h3v-3zm1 1h1v1h-1zm-6 4v3h3v-3zm10 0v3h3v-3zm-9 1h1v1h-1zm10 0h1v1h-1zm-6 4v3h3v-3zm1 1h1v1h-1z" fill="#3daee9"/></svg>

<svg xmlns="http://www.w3.org/2000/svg" viewBox="0 0 16 16">
  <defs id="defs3051">
    <style type="text/css" id="current-color-scheme">
      .ColorScheme-Text {
        color:#4d4d4d;
      }
      .ColorScheme-Highlight {
        color:#3daee9;
      }
      </style>
  </defs>
  <path 
        style="fill:currentColor;fill-opacity:1;stroke:none"
        d="M 8 2.0253906 A 5.500002 5.500015 0 0 0 3.0273438 7 L 4 7 L 4.03125 7 A 4.5 4.5 0 0 1 8 3.0332031 L 8 3 L 8 2.0253906 z M 9 2.0273438 L 9 3 L 9 3.03125 A 4.5 4.5 0 0 1 12.966797 7 L 13 7 L 13.974609 7 A 5.500002 5.500015 0 0 0 9 2.0273438 z M 3.0292969 8 A 5.500002 5.500015 0 0 0 8 12.972656 L 8 12 L 8 11.96875 A 4.5 4.5 0 0 1 4.0332031 8 L 4 8 L 3.0292969 8 z M 12.96875 8 A 4.5 4.5 0 0 1 9 11.966797 L 9 12 L 9 12.974609 A 5.500002 5.500015 0 0 0 13.972656 8 L 13 8 L 12.96875 8 z "
        class="ColorScheme-Text"
        />
  <path
        style="fill:currentColor;fill-opacity:1;stroke:none"
        d="M 7 1 L 7 4 L 10 4 L 10 1 L 7 1 z M 8 2 L 9 2 L 9 3 L 8 3 L 8 2 z M 2 6 L 2 9 L 5 9 L 5 6 L 2 6 z M 12 6 L 12 9 L 15 9 L 15 6 L 12 6 z M 3 7 L 4 7 L 4 8 L 3 8 L 3 7 z M 13 7 L 14 7 L 14 8 L 13 8 L 13 7 z M 7 11 L 7 14 L 10 14 L 10 11 L 7 11 z M 8 12 L 9 12 L 9 13 L 8 13 L 8 12 z "
        class="ColorScheme-Highlight"
      />
</svg>
